X:1
T:Ben mille nott'ho
T:Ben mille nott'ho
T:Vincentio Ruffo
T:Source : Symphonia Angelica---Anversa---P.Phalesio & G.Bellero---1585. Editor : André Vierendeels (15/01/14).
C:Vincentio Ruffo
%%score [ 1 2 [ 3 4 ] ]
L:1/8
Q:1/4=94
M:4/4
K:C
V:1 treble nm="Canto" snm="C"
V:2 treble nm="Alto" snm="A"
V:3 treble-8 nm="Tenor 1" snm="T 1"
V:4 treble-8 nm="Tenor 2" snm="T 2"
V:1
 c8 | B4 A4 | G4 G4 | G4 A4 | A4 G2 c2- | cB/A/ B2 c4 | z4 B4 | c4 c4 | B4 G2 A2- | A2 G2 E2 F2 | %10
w: Ben|mil- le|tut- t'ho|gia pas-|sa- to'in pian-|* * * * to,|ben|mil- le|tut- t'ho gia|_ pas- sa- to'in|
 G4 A4 | G4 B4- | B4 c4 | c2 c4 c2 | d4 e4 | c8 | c4 d4 | G2 g4 e2 | f2 e4 dc | B8 | z4 c4- | %21
w: pian- *|to, tal|_ che-|qua- si pa-|lu- d'ho|fat-|t'i cam-|pi, ho fat-|t'i cam- * *|pi,|al|
 c4 c4 | d4 e4 | c2 c2 f3 e | d2 e2 dc c2- | cB/A/ B2 c4 | z4 G4 | c3 B A2 B2 | AG G4 F2 | G4 c4 | %30
w: _ fin|m'as- si-|s'in u- na _|ver- de va- * *|* * * * le,|in|u- na ver- de|va- * * *|le, et|
 e6 d2 | e3 f g4 | z2 e2 e2 d2 | e3 f g4 | z4 d4 | e4 c2 f2- | fe dc B4 | z4 A4 | B2 G2 c3 d | %39
w: u- na|vo- ci'u- di,|et u- na|vo- ci'u- di|per|me- z'i fas-|* * * * si,|per|me- z'i sas- *|
 e2 c4 BA | G4 c4 | B8 | z8 | z8 | z4 z2 G2- | G2 c4 e2 | d2 c2 d3 e | f2 g2 c2 f2- | fe dc B2 c2 | %49
w: |si dir-|mi:|||ec-|* c'hor s'ap-|pres- s'un lie- to|gior- no'un lie- *|* * * * * ro|
 A4 B4 | z2 G2 c2 B2 | c3 d e4 | z2 c4 d2- | d2 e2 f2 d2 | g3 f e2 e2- | ed c3 B/A/ B2 | c6 B2 | %57
w: gior- no,|che ti fa-|ra can- tar,|che tii|_ fa- ra can-|tar piu dol- ce|_ _ _ _ _ _|ri- me,|
 z2 G2 c2 B2 | c3 d e4 | z2 c4 d2- | d2 e2 f2 d2 | g3 f e2 e2- | ed c3 B/A/ B2 | c8- | c8- | c8- | %66
w: che ti fa-|ra can- tar,|che ti|_ fa- ra can-|tar piu dol- ce|_ _ ri- * * *|me.|_||
 c8 |] %67
w: |
V:2
 G8 | G4 F4 | E4 E4 | D4 E4 | F6 E2 | D4 C4 | z2 G2 G2 F2 | E3 D C4 | D4 C4 | A,2 B,2 C4 | %10
w: Ben|mil- le|tut- t'ho|gia pas-|sa- to'in|pian- to,|ben mil- le|tut- * *|t'ho gia|pas- sa- to'in|
 D3 E F4 | E4 G4- | G4 G4 | G2 A4 A2 | B4 c4 | A8 | G4 F4 | E2 c2 B2 cB | AG G3 F/E/ F2 | G8 | %20
w: pian- * *|to, tal|_ che|qua- si pa-|lu- d'ho|fat'|t'i cam-|pi, ho fat- t'i _|_ _ cam- * * *|pi,|
 z4 G4- | G4 A4 | B4 c4 | A2 F2 A3 G | F2 c3 B A2 | G6 A2 | F4 E4 | E4 F2 G2 | F2 E4 DC | %29
w: al|_ fin|m'as- si-|si- in u- *|* na _ _|ver- de|va- le,|in u- na|ver- de _ _|
 B,4 A,2 G,2 | G4 z2 G2 | G2 A2 B4 | c4 B4 | z2 G2 G2 G2 | A4 B4 | c4 z2 A2- | A2 B4 G2- | %37
w: _ va- *|le, et|u- na vo-|ce'u- di,|et u- na|vo- ce'u-|di, per|_ me- z'i|
 G2 A4 F2 | G4 E3 F | G2 E4 D2 | E4 G4- | G4 G4 | G4 c4 | B2 A4 G2 | F2 E2 D4 | E4 G3 A | %46
w: _ sas- si,|per me- z'i|sas _ _|si dir-|* mi:|ec- c'hor|s'ap- pres- s'un|lie- to gior-|no, ec- *|
 B2 c4 B2 | A2 G2 A4 | F2 A3 G G2- |"^#" G2 F2 G2 D2 | E3 D E2 G2- | G2 A4 G2 | c3 B A2 F2 | %53
w: * c'hor s'ap-|pres- s'un lie-|to gior- * *|* * no, che|ti fa- ra can-|* tar, che|ti fa- ra can-|
 D2 B2 c2 B2 | G2 G2 c3 B | A2 G2 A2 GF | E4 z2 D2 | E3 D E2 G2- | G2 A4 G2 | c3 B A2 F2 | %60
w: tar, che ti fa-|ra can- tar piu|dol- ce ri- * *|me, che|ti fa- ra can-|* tar, che|ti fa- ra can-|
 D2 B2 c2 B2 | G2 G2 c3 B | A2 G2 A2 GF | E2 A2 G3 F | E2 F2 C2 C2 | F2 G2 A4 | G8 |] %67
w: tar,- che ti fa-|ra- can- tar piu|dol- ce ri- * *|me, che ti fa-|ra can- tar piu|dol- ce ri-|me.|
V:3
 e8 | d4 d4 | B4 c4 | G4 c4- | c4 c4 | G4 A4 | G4 z4 | z2 g2 f2 e2 | g3 f e2 f2 | d2 e3 d c2- | %10
w: Ben|mil- le|tut- t'ho|gia pas-|* sa-|to'in pian-|to,|ben mil- le|tut- t'ho gia pas-|sa- to'in _ pian-|
 c2 B2 c4- | c4 d4- | d4 e4 | e2 f4 e2 | g8 | f4 c3 d | e2 c4 B2 | c4 e3 d | c2 B2 c3 d | e4 d4 | %20
w: * * to,|_ tal|_ che|qua- si pa-|lu-|d'ho fa- *|t'i cam- *|pi, ho _|fat- t'i cam- *|* pi,|
 z4 e4- | e4 e4 | g4 g4 | f8 | z2 c2 f3 e | d2 e3 d c2- | cB/A/ B2 c3 B | A2 G2 z2 G2 | A2 B2 c4 | %29
w: al|_ fin|m'as- si-|si|in u- na|ver- de _ va-||* le, in|u- na ver-|
 d4 e3 d | c4 G4 | z2 c2 e2 d2 | e3 f g4- | g4 z2 c2 | f4 g4- | g4 a4 | d4 z2 d2 | e2 c2 f3 e | %38
w: de va- *|* le,|et u- na|vo- c'u- di,|_ per|me- z'i|_ fas-|si, per|me- z'i sas- *|
 d2 e3 d c2 | B2 c2 A4 | B4 e4 | d4 z2 d2- | d2 e4 c2 | d2 f4 e2 | d2 c3 B/A/ B2 | c4 z2 g2 | %46
w: ||si dir-|mi: ec-|* c'hor s'ap-|pres- s'un lie-|to gior- * * *|no, ec-|
 g2 a2 g4 | f2 e2 f4 | d4 e2 c2 | d4 G4 | z4 z2 G2 | c3 B c3 d | e2 c2 f3 e | f2 g2 a2 d2- | %54
w: c'hor s'ap- pres-|s'un lie- to|gior- * *|* no,|che|ti- fa- ra can-|tar, che ti fa-|ra can- tar piu|
 d2 g3 f ed | c2 e2 d4 | c3 d ef g2- | g2 G2 z2 G2 | c3 B c3 d | e2 c2 f3 e | f2 g2 a2 d2- | %61
w: _ dol- * * *|* ce ri-||* me, che|ti fa- ra can-|tar, che ti fa-|ra can- tar piu|
 d2 g3 f ed | c2 e2 d4 | c2 c2 e3 f | g2 c2 f2 e2 | a2 g2 f4 | e8 |] %67
w: _ dol- * * *|* ce ri-|me, che ti fa-|ra can- tar piu|dol- ce ri-|me.|
V:4
 C8 | G4 D4 | E4 C2 c2- | c2 B2 A3 G | F4 C4 | z4 z2 c2 | c2 B2 e2 d2 | c3 B A2 A2 | G4 C2 F2 | %9
w: Ben|mil- le|tut- t'ho gia|_ pas- sa- to'in|pian- to,|ben|mil- le tut- t'ho|gia pas- sa- to'in|pian- to, ho|
 F2 E2 A4 | G4 F4 | C4 G4- | G4 c4 | c2 F4 A2 | G4 C4 | F8 | E4 D4 | C4 z2 c2 | F2 G2 A4 | G8 | %20
w: gia pas- sa-|to'in pian-|to, tal|_ che|qua- si pa-|lu- d'ho|fat-|t'i cam-|pi, ho|fat- t'i cam-|pi,|
 z4 c4- | c4 A4 | G4 c4 | F4 z2 F2 |"^b" B2 A2 F2 F2 | G3 F E2 F2 | D4 C4 | z2 C2 F2 E2 | %28
w: al|_ fin|m'as- si-|si in|u- na ver- de|va- * * *|* le,|in u- na|
 F2 G2 A4 | G4 z2 C2- | C2 c4 B2 | c2 A2 G4 | C4 z2 G2 | c3 d e2 e2 | d4 G4 | c4 A2 d2- | %36
w: ver- de va-|le, et|u- na vo-|ce'u- * *|di et|u- ne vo- ce'u-|di, per|me- z'i sas-|
 dc BA G4 | z2 A2 d4 | G2 c3 B A2 | G2 A2 F4 | E4 C4 | G4 z2 G2- | G2 c4 A2 | G2 F4 C2 | %44
w: * * * * si,|per m'-|z'i sas- * *||si dir-|mi: ec-|* c'hor s'ap-|pres- s'un lie-|
 D2 E2 F2 G2 | C8 | z8 | z8 | z8 | z4 z2 G2 | c3 B c2 d2 | e4 A2 c2- |"^b" cB A2 F2 B2- | %53
w: to gior- * *|no,||||che|ti fa- ra can-|tar, che ti|_ fa- ra can- tar|
 BA G2 F2 G2- | GFED C4 | z2 C2 F2 G2 | A3 B c2 G2 | c2 B2 c2 d2 | e4 A2 c2- | cB A2 F2 _B2- | %60
w: _ piu dol- ce ri-|* * * * me,|che ti fa-|ra can- tar, che|ti fa- rar can-|tar, che ti|_ fa- ra can- tar|
 BA G2 F2 G2- | GF ED C4 | z2 C2 F2 G2 | A3 B c2 C2- | C2 F3 G A2 | F2 E2 F3 E | C8 |] %67
w: _ piu dol- ce ri-|* * * * me,|che ti fa-|ra can- tar piu|_ dol- * *|* ce ri- *|me.|

